images/d-mouse-hover-m.svg

<svg fill="none" height="51" viewBox="0 0 71 51" width="71" xmlns="http://www.w3.org/2000/svg"><path clip-rule="evenodd" d="m5.5647.484131 65.393 17.521969-2.7056 10.0975-2.8344 10.5783-3.8467-1.0307-1.9326 7.2123-5.2891-1.4172-1.4172 5.2892-7.6933-2.0614-1.0654 3.9761-7.2125-1.9326-.6095 2.2747-17.3099-4.6382.6442-2.4042-7.2125-1.9325 1.0307-3.8467-7.69321-2.0613 1.41721-5.2891-5.28915-1.4172 1.93259-7.2126-3.8466494-1.0307 2.7972694-10.4395h-.00003zm34.6864 34.031069-1.0282 3.8374-5.2892-1.4172-.0024.0092-8.655-2.3191 1.0307-3.8466-7.6933-2.0614 1.5461-5.7699-6.7317-1.8037 1.8955-7.0738 15.3865 4.1228-2.7972 10.4395 12.5016 3.3498 2.7972-10.4395 12.5016 3.3498-1.8954 7.0737-6.7316-1.8038-1.5461 5.77z" fill="#ff512f" fill-rule="evenodd"/></svg>

<svg width="71" height="51" viewBox="0 0 71 51" fill="none" xmlns="http://www.w3.org/2000/svg">
<path fill-rule="evenodd" clip-rule="evenodd" d="M5.5647 0.484131L70.9577 18.0061L68.2521 28.1036L65.4177 38.6819L61.571 37.6512L59.6384 44.8635L54.3493 43.4463L52.9321 48.7355L45.2388 46.6741L44.1734 50.6502L36.9609 48.7176L36.3514 50.9923L19.0415 46.3541L19.6857 43.9499L12.4732 42.0174L13.5039 38.1707L5.81069 36.1094L7.2279 30.8203L1.93875 29.4031L3.87134 22.1905L0.0246906 21.1598L2.82196 10.7203L2.82193 10.7203L5.5647 0.484131ZM40.2511 34.5152L39.2229 38.3526L33.9337 36.9354L33.9313 36.9446L25.2763 34.6255L26.307 30.7789L18.6137 28.7175L20.1598 22.9476L13.4281 21.1439L15.3236 14.0701L30.7101 18.1929L27.9129 28.6324L40.4145 31.9822L43.2117 21.5427L55.7133 24.8925L53.8179 31.9662L47.0863 30.1624L45.5402 35.9324L40.2511 34.5152Z" fill="#FF512F"/>
</svg>
